src/icons/hds/ui/upload.svg

<svg xmlns="http://www.w3.org/2000/svg" width="24" height="24" viewBox="0 0 24 24">
  <g fill="none" fill-rule="evenodd">
    <rect width="24" height="24"/>
    <path fill="currentColor" d="M12,1.63603897 L17.6568542,7.29289322 L16.2426407,8.70710678 L13,5.46503897 L13,18 L11,18 L11,5.46503897 L7.75735931,8.70710678 L6.34314575,7.29289322 L12,1.63603897 Z M5,15 L5,20 L19,20 L19,15 L21,15 L21,22 L3,22 L3,15 L5,15 Z"/>
  </g>
</svg>

<svg viewBox="0 0 24 24" role="img" xmlns="http://www.w3.org/2000/svg"><g fill="none" fill-rule="evenodd"><path d="M0 0h24v24H0z"/><path d="M12 1.636l5.657 5.657-1.414 1.414L13 5.465V18h-2V5.465L7.757 8.707 6.343 7.293 12 1.636zM5 15v5h14v-5h2v7H3v-7h2z" fill="currentColor"/></g></svg>
